X:1
T:Herr, ich bin dein Eigentum
T:Johannes Rosenmüller, 1655
T:Armin Kircher
T:©  J.A.  2013
Z:©  J.A.  2013
%%score ( 1 2 ) 3
L:1/8
M:4/4
K:D
V:1 treble nm="S." snm="S."
V:2 treble 
V:3 treble nm="A." snm="A."
V:1
 F2 FG A2 A2 | D2 E2 F4 | B2 c2 d2 F2 | E4 !breath!D4 | F2 FG A2 A2 | D2 E2 F4 | B2 c2 d2 F2 | %7
 E4 D4 | A2 E2 F4 | B2 F2 ^G4 | A2 E2 F^G A2 | (A2 ^G2) !breath!A4 | B2 c2 d2 F2 | E4 D4 |] %14
V:2
 D2 D2 E2 C2 | B,2 C2 D4 | G2 G2 F2 D2 | (D2 C2) D4 | D2 D2 E2 C2 | B,2 C2 D4 | G2 G2 F2 D2 | %7
w: Herr, ich bin dein|Ei- gen- tum,|dein ist ja mein|Le- * ben.|Mir zum Heil und|dir zum Ruhm|hast du mir's ge-|
w: Dei- ne Treu- e|wan- ket nicht,|du wirst mein ge-|den- * ken,|wirst mein Herz in|dei- nem Licht|durch die Zeit hin|
w: Gib auch, dass ich|wa- chend sei,|Herr, an dei- nem|Ta- * ge,|und das Licht der|Gna- den treu|durch mein Le- ben|
 (D2 C2) D4 | E2 C2 D4 | F2 D2 E4 | E2 C2 DE E2 | D2 E2 E4 | G2 G2 F2 D2 | (D2 C2) D4 |] %14
w: ge- * ben.|Vä- ter- lich|führst du mich|auf des Le- * bens|We- * gen|mei- nem Ziel ent-|ge- * gen.|
w: len- * ken.|So weiß ich,|du hast mich|in die Ha- nd ge-|schrie- * ben,|e- wig mich zu|lie- * ben.|
w: tra- * ge.|Dass ich dann|fröh- lich kann|dir am E- nd der|Zei- * ten,|Herr, ent- ge- gen-|schrei- * ten.|
V:3
 D2 B,2 C2 A,2 | B,2 A,2 D4 | G2 E2 D2 B,2 | (G,2 A,2) !breath!D4 | D2 B,2 C2 A,2 | B,2 A,2 D4 | %6
 G2 E2 D2 B,2 | (G,2 A,2) D4 | C2 A,2 D4 | ^D2 B,2 E4 | C2 A,2 D2 C2 | (B,2 D2) !breath!C4 | %12
 E2 E2 D2 B,2 | (G,2 A,2) D4 |] %14

